cube.ti3
CTI3   

DESCRIPTOR "Argyll Calibration Target chart information 3"
ORIGINATOR "Argyll dispread"
CREATED "Mon May  9 12:22:25 2016"
DEVICE_CLASS "DISPLAY"
MULTI_DIM_STEPS "5"
COLOR_REP "RGB_XYZ"
TARGET_INSTRUMENT "X-Rite ColorMunki"
DISPLAY_TYPE_REFRESH "YES"
INSTRUMENT_TYPE_SPECTRAL "YES"
LUMINANCE_XYZ_CDM2 "340.773297 351.823681 410.985516"
NORMALIZED_TO_Y_100 "YES"

NUMBER_OF_FIELDS 7
BEGIN_DATA_FORMAT
SAMPLE_ID RGB_R RGB_G RGB_B XYZ_X XYZ_Y XYZ_Z 
END_DATA_FORMAT

NUMBER_OF_SETS 125
BEGIN_DATA
1 0.00000 0.00000 0.00000 0.0993529 0.0882114 0.224859 
2 25.00000 0.00000 0.00000 1.554638 0.825906 0.303528 
3 50.00000 0.00000 0.00000 7.569087 3.871699 0.606654 
4 75.00000 0.00000 0.00000 19.53794 9.933401 1.218140 
5 100.0000 0.00000 0.00000 38.83769 19.71297 2.282889 
6 100.0000 75.00000 100.0000 78.52923 64.37029 111.4378 
7 0.00000 25.00000 0.00000 1.569351 2.952397 0.616291 
8 50.00000 25.00000 0.00000 9.137948 6.830712 1.003153 
9 75.00000 25.00000 0.00000 21.14759 12.93526 1.638009 
10 100.0000 25.00000 0.00000 40.39820 22.72292 2.677693 
11 100.0000 50.00000 25.00000 47.45783 35.22084 8.299091 
12 25.00000 50.00000 0.00000 9.166572 15.64497 2.296667 
13 50.00000 50.00000 0.00000 15.28319 18.78681 2.613212 
14 75.00000 50.00000 0.00000 27.30994 24.92646 3.242761 
15 100.0000 50.00000 0.00000 46.61235 34.84430 4.308571 
16 100.0000 75.00000 25.00000 59.35132 58.41025 11.48534 
17 0.00000 50.00000 0.00000 7.607857 14.74695 2.203802 
18 50.00000 75.00000 0.00000 27.14167 41.90683 5.747495 
19 75.00000 75.00000 0.00000 39.18732 48.06203 6.372712 
20 100.0000 75.00000 0.00000 58.47011 57.99265 7.440872 
21 25.00000 75.00000 0.00000 20.99381 38.73897 5.415579 
22 25.00000 100.0000 0.00000 39.50266 74.89245 10.47942 
23 50.00000 100.0000 0.00000 45.73759 78.12146 10.80892 
24 75.00000 100.0000 0.00000 57.78043 84.22609 11.43350 
25 100.0000 100.0000 0.00000 76.92735 93.96415 12.47135 
26 0.00000 0.00000 25.00000 0.811839 0.306687 3.966518 
27 25.00000 0.00000 25.00000 2.297458 1.056139 4.094733 
28 50.00000 0.00000 25.00000 8.369357 4.130561 4.425483 
29 75.00000 0.00000 25.00000 20.35580 10.19702 5.053773 
30 100.0000 0.00000 25.00000 39.64601 19.96917 6.191601 
31 100.0000 0.00000 75.00000 48.88707 22.75429 54.75007 
32 75.00000 50.00000 75.00000 37.59136 28.28302 55.79890 
33 50.00000 25.00000 25.00000 9.963687 7.135079 4.881745 
34 75.00000 25.00000 25.00000 21.98017 13.23503 5.528641 
35 100.0000 25.00000 25.00000 41.23301 23.02033 6.635718 
36 100.0000 75.00000 50.00000 62.60192 59.45692 28.21602 
37 100.0000 75.00000 75.00000 68.74991 61.35937 60.38516 
38 50.00000 50.00000 25.00000 16.15926 19.17817 6.526498 
39 75.00000 50.00000 25.00000 28.21065 25.33154 7.177559 
40 25.00000 25.00000 0.00000 3.069383 3.747307 0.695835 
41 25.00000 50.00000 25.00000 9.987396 16.00789 6.178697 
42 25.00000 75.00000 25.00000 21.84468 39.15098 9.326406 
43 50.00000 75.00000 25.00000 28.04494 42.34213 9.689952 
44 75.00000 75.00000 25.00000 40.09886 48.49576 10.33728 
45 75.00000 75.00000 50.00000 43.28465 49.50140 26.86878 
46 0.00000 100.0000 0.00000 38.00415 74.17091 10.40782 
47 25.00000 100.0000 25.00000 40.34245 75.25203 14.48129 
48 50.00000 100.0000 25.00000 46.57450 78.41102 14.79579 
49 75.00000 100.0000 25.00000 58.63433 84.52557 15.45867 
50 100.0000 100.0000 25.00000 77.72374 94.22292 16.56538 
51 100.0000 100.0000 50.00000 80.94520 95.19615 33.46892 
52 25.00000 0.00000 50.00000 5.380474 1.989287 20.27965 
53 50.00000 0.00000 50.00000 11.47785 5.073025 20.66096 
54 75.00000 0.00000 50.00000 23.49373 11.15713 21.37518 
55 100.0000 0.00000 50.00000 42.77441 20.91043 22.68255 
56 100.0000 0.00000 100.0000 58.68181 25.64430 106.1304 
57 100.0000 50.00000 100.0000 66.67895 41.17489 108.3626 
58 50.00000 25.00000 50.00000 13.11372 8.108689 21.25866 
59 75.00000 25.00000 50.00000 25.14444 14.21210 21.97042 
60 100.0000 25.00000 50.00000 44.40896 24.00319 23.30125 
61 100.0000 25.00000 100.0000 60.32932 28.78408 106.6752 
62 25.00000 50.00000 50.00000 13.13919 17.01168 22.56679 
63 50.00000 50.00000 50.00000 19.32094 20.17757 22.94999 
64 75.00000 50.00000 50.00000 31.39200 26.34143 23.68194 
65 100.0000 50.00000 50.00000 50.71091 36.26531 25.03138 
66 100.0000 50.00000 75.00000 56.85786 38.16339 57.20746 
67 25.00000 75.00000 50.00000 25.01322 40.16679 25.79157 
68 50.00000 75.00000 50.00000 31.22898 43.35295 26.18495 
69 0.00000 75.00000 0.00000 19.43181 37.84752 5.326855 
70 0.00000 75.00000 25.00000 20.24340 38.23219 9.187280 
71 0.00000 100.0000 25.00000 38.77368 74.44463 14.34419 
72 0.00000 100.0000 50.00000 41.90826 75.38371 30.86644 
73 50.00000 100.0000 50.00000 49.79019 79.40066 31.54130 
74 75.00000 100.0000 50.00000 61.86261 85.51437 32.25010 
75 0.00000 0.00000 50.00000 3.856802 1.222901 20.02332 
76 0.00000 0.00000 75.00000 9.933669 3.049328 52.03292 
77 25.00000 0.00000 75.00000 11.47985 3.822154 52.36552 
78 50.00000 0.00000 75.00000 17.61995 6.929120 52.77559 
79 75.00000 0.00000 75.00000 29.65151 13.01884 53.49142 
80 25.00000 25.00000 25.00000 3.844878 4.026113 4.555670 
81 25.00000 25.00000 50.00000 6.961791 4.982342 20.88536 
82 25.00000 25.00000 75.00000 13.08279 6.845671 52.98655 
83 50.00000 25.00000 75.00000 19.27481 9.988094 53.40714 
84 75.00000 25.00000 75.00000 31.32391 16.09958 54.11372 
85 100.0000 25.00000 75.00000 50.57106 25.87586 55.47893 
86 0.00000 25.00000 25.00000 2.315415 3.219868 4.423587 
87 0.00000 50.00000 25.00000 8.413089 15.12420 6.040879 
88 50.00000 50.00000 75.00000 25.52749 22.13368 55.13149 
89 50.00000 50.00000 100.0000 35.46557 25.21648 106.6075 
90 50.00000 75.00000 100.0000 47.37289 48.43741 109.7676 
91 25.00000 50.00000 75.00000 19.30497 18.94900 54.74028 
92 25.00000 75.00000 75.00000 31.19436 42.12891 57.96982 
93 50.00000 75.00000 75.00000 37.45579 45.34198 58.40372 
94 75.00000 75.00000 75.00000 49.52648 51.49535 59.10078 
95 75.00000 75.00000 100.0000 59.48573 54.61756 110.4664 
96 25.00000 100.0000 50.00000 43.56588 76.29558 31.18272 
97 25.00000 100.0000 75.00000 49.69444 78.13810 63.39567 
98 50.00000 100.0000 75.00000 55.98488 81.32357 63.80329 
99 75.00000 100.0000 75.00000 68.06446 87.43844 64.52027 
100 100.0000 100.0000 75.00000 87.14472 97.11781 65.80616 
101 0.00000 0.00000 100.0000 19.79483 5.964813 103.9092 
102 25.00000 0.00000 100.0000 21.31902 6.723427 104.0729 
103 50.00000 0.00000 100.0000 27.51383 9.862571 104.4305 
104 75.00000 0.00000 100.0000 39.55667 15.96334 105.0786 
105 75.00000 50.00000 100.0000 47.57031 31.39189 107.3133 
106 0.00000 25.00000 100.0000 21.34498 8.964927 104.4104 
107 25.00000 25.00000 100.0000 22.94090 9.801874 104.6233 
108 50.00000 25.00000 100.0000 29.19378 12.98594 104.9923 
109 75.00000 25.00000 100.0000 41.23916 19.08750 105.6293 
110 0.00000 50.00000 75.00000 17.67753 18.03572 54.46209 
111 0.00000 50.00000 100.0000 27.55261 21.07434 106.0905 
112 25.00000 50.00000 100.0000 29.21288 22.02115 106.3186 
113 0.00000 25.00000 50.00000 5.411183 4.173550 20.66492 
114 0.00000 25.00000 75.00000 11.51712 6.024397 52.77188 
115 0.00000 75.00000 75.00000 29.55873 41.20637 57.71130 
116 0.00000 75.00000 100.0000 39.44686 44.28066 109.2926 
117 25.00000 75.00000 100.0000 41.10433 45.22826 109.5071 
118 0.00000 50.00000 50.00000 11.54110 16.12025 22.34782 
119 0.00000 75.00000 50.00000 23.40671 39.27821 25.56786 
120 0.00000 100.0000 75.00000 48.07256 77.29669 63.11465 
121 0.00000 100.0000 100.0000 57.84934 80.21358 114.5112 
122 25.00000 100.0000 100.0000 59.46516 81.04746 114.6851 
123 50.00000 100.0000 100.0000 65.79800 84.25835 115.0352 
124 75.00000 100.0000 100.0000 77.87846 90.37617 115.7027 
125 100.0000 100.0000 100.0000 96.85911 100.0000 116.8158 
END_DATA
