disp_model_test.ti1
CTI1 
COLOR_REP "RGB"
NUMBER_OF_FIELDS 4
BEGIN_DATA_FORMAT
SAMPLE_ID RGB_R RGB_G RGB_B
END_DATA_FORMAT 
NUMBER_OF_SETS 30
NUMBER_OF_SETS 30
BEGIN_DATA
1	49.000000	64.000000	62.000000
2	84.000000	112.000000	113.000000
3	65.000000	90.000000	122.000000
4	51.000000	70.000000	65.000000
5	74.000000	102.000000	135.000000
6	84.000000	120.000000	139.000000
7	80.000000	104.000000	75.000000
8	57.000000	81.000000	123.000000
9	73.000000	92.000000	90.000000
10	44.000000	60.000000	82.000000
11	82.000000	114.000000	85.000000
12	90.000000	119.000000	83.000000
13	47.000000	66.000000	112.000000
14	59.000000	86.000000	74.000000
15	62.000000	77.000000	67.000000
16	101.000000	136.000000	93.000000
17	74.000000	96.000000	120.000000
18	62.000000	89.000000	125.000000
19	124.000000	161.000000	161.000000
20	103.000000	141.000000	161.000000
21	83.000000	114.000000	131.000000
22	64.000000	87.000000	100.000000
23	45.000000	63.000000	71.000000
24	30.000000	40.000000	46.000000
25	0.000000	0.000000	0.000000
26	0.000000	0.000000	0.000000
27	0.000000	0.000000	0.000000
28	100.000000	100.000000	100.000000
29	100.000000	100.000000	100.000000
30	100.000000	100.000000	100.000000
END_DATA
