disp_model_test.ti3
CTI3   

DESCRIPTOR "Argyll Calibration Target chart information 3"
ORIGINATOR "Argyll dispread"
CREATED "Mon May  9 19:00:29 2016"
DEVICE_CLASS "DISPLAY"
COLOR_REP "RGB_XYZ"
TARGET_INSTRUMENT "X-Rite ColorMunki"
DISPLAY_TYPE_REFRESH "YES"
INSTRUMENT_TYPE_SPECTRAL "YES"
LUMINANCE_XYZ_CDM2 "356.162306 369.212854 426.094998"
NORMALIZED_TO_Y_100 "YES"

NUMBER_OF_FIELDS 7
BEGIN_DATA_FORMAT
SAMPLE_ID RGB_R RGB_G RGB_B XYZ_X XYZ_Y XYZ_Z 
END_DATA_FORMAT

NUMBER_OF_SETS 30
BEGIN_DATA
1 49.00000 64.00000 62.00000 27.01235 31.89714 37.06617 
2 84.00000 112.0000 113.0000 83.30513 93.34166 114.7456 
3 65.00000 90.00000 122.0000 63.79484 71.58948 111.7445 
4 51.00000 70.00000 65.00000 31.70006 38.78544 42.11852 
5 74.00000 102.0000 135.0000 76.88084 90.06818 114.3480 
6 84.00000 120.0000 139.0000 83.25337 93.29224 114.6753 
7 80.00000 104.0000 75.00000 70.69920 88.95715 63.32475 
8 57.00000 81.00000 123.0000 53.38256 56.88926 109.7374 
9 73.00000 92.00000 90.00000 65.13408 75.45428 89.49388 
10 44.00000 60.00000 82.00000 29.39470 29.23625 67.10663 
11 82.00000 114.0000 85.00000 75.49456 90.67853 81.30052 
12 90.00000 119.0000 83.00000 80.88089 93.55800 78.15019 
13 47.00000 66.00000 112.0000 40.71167 37.51788 107.0882 
14 59.00000 86.00000 74.00000 47.27935 60.49806 58.01348 
15 62.00000 77.00000 67.00000 40.60742 48.75658 45.84591 
16 101.0000 136.0000 93.00000 93.17415 99.02388 98.26916 
17 74.00000 96.00000 120.0000 73.55495 83.65503 113.2693 
18 62.00000 89.00000 125.0000 61.24652 68.99720 111.2864 
19 124.0000 161.0000 161.0000 96.46531 100.0000 115.4063 
20 103.0000 141.0000 161.0000 96.46564 99.99845 115.3968 
21 83.00000 114.0000 131.0000 82.69373 93.00047 114.5530 
22 64.00000 87.00000 100.0000 60.74300 66.56817 110.9213 
23 45.00000 63.00000 71.00000 27.65422 31.14290 49.09086 
24 30.00000 40.00000 46.00000 9.966182 10.95912 17.57363 
25 0.00000 0.00000 0.00000 0.103592 0.0899846 0.232378 
26 0.00000 0.00000 0.00000 0.102911 0.0894474 0.229830 
27 0.00000 0.00000 0.00000 0.103325 0.0897517 0.230616 
28 100.0000 100.0000 100.0000 96.44368 99.98641 115.3258 
29 100.0000 100.0000 100.0000 96.44387 99.98531 115.3267 
30 100.0000 100.0000 100.0000 96.44111 99.98264 115.3250 
END_DATA
