ramps_plus.ti3
CTI3   

DESCRIPTOR "Argyll Calibration Target chart information 3"
ORIGINATOR "Argyll dispread"
CREATED "Mon May  9 12:03:51 2016"
DEVICE_CLASS "DISPLAY"
SINGLE_DIM_STEPS "11"
COMP_GREY_STEPS "11"
COLOR_REP "RGB_XYZ"
TARGET_INSTRUMENT "X-Rite ColorMunki"
DISPLAY_TYPE_REFRESH "YES"
INSTRUMENT_TYPE_SPECTRAL "YES"
LUMINANCE_XYZ_CDM2 "341.655466 352.785498 412.527753"
NORMALIZED_TO_Y_100 "YES"

NUMBER_OF_FIELDS 7
BEGIN_DATA_FORMAT
SAMPLE_ID RGB_R RGB_G RGB_B XYZ_X XYZ_Y XYZ_Z 
END_DATA_FORMAT

NUMBER_OF_SETS 47
BEGIN_DATA
1 100.0000 100.0000 100.0000 96.84510 100.0000 116.9344 
2 0.00000 20.00000 0.00000 0.952519 1.749756 0.450397 
3 20.00000 20.00000 20.00000 2.263188 2.356415 2.736880 
4 0.00000 0.00000 0.00000 0.100677 0.0893876 0.227502 
5 0.00000 0.00000 90.00000 15.43128 4.691763 80.99212 
6 0.00000 0.00000 100.0000 19.80589 5.962362 104.0679 
7 0.00000 0.00000 0.00000 0.0998589 0.0886684 0.225853 
8 0.00000 0.00000 10.00000 0.175949 0.112398 0.621893 
9 10.00000 10.00000 10.00000 0.472937 0.478572 0.675501 
10 20.00000 0.00000 0.00000 0.944451 0.516370 0.268505 
11 30.00000 0.00000 0.00000 2.337962 1.221191 0.340059 
12 40.00000 0.00000 0.00000 4.430520 2.281732 0.445121 
13 10.00000 0.00000 0.00000 0.245834 0.163241 0.235293 
14 50.00000 0.00000 0.00000 7.516498 3.843978 0.600168 
15 60.00000 0.00000 0.00000 11.50510 5.863780 0.806570 
16 70.00000 0.00000 0.00000 16.67295 8.484947 1.076873 
17 80.00000 0.00000 0.00000 22.63931 11.50321 1.375998 
18 100.0000 0.00000 0.00000 38.77298 19.67047 2.254353 
19 90.00000 0.00000 0.00000 30.13911 15.29995 1.776764 
20 100.0000 100.0000 100.0000 96.77550 99.93191 116.9182 
21 0.00000 30.00000 0.00000 2.359952 4.498110 0.821414 
22 0.00000 40.00000 0.00000 4.478985 8.635677 1.377957 
23 0.00000 50.00000 0.00000 7.565972 14.66432 2.187835 
24 0.00000 60.00000 0.00000 11.54003 22.42504 3.236485 
25 0.00000 70.00000 0.00000 16.67106 32.44569 4.592035 
26 0.00000 80.00000 0.00000 22.57031 43.97019 6.162763 
27 0.00000 90.00000 0.00000 29.85898 58.21986 8.120636 
28 0.00000 0.00000 50.00000 3.854046 1.222109 20.01756 
29 0.00000 0.00000 20.00000 0.515002 0.214986 2.411615 
30 0.00000 0.00000 40.00000 2.291606 0.752308 11.77772 
31 0.00000 0.00000 60.00000 5.877855 1.832357 30.67523 
32 0.00000 0.00000 0.00000 0.100022 0.0885704 0.227060 
33 100.0000 100.0000 100.0000 96.78531 99.93230 116.9846 
34 0.00000 10.00000 0.00000 0.249267 0.377930 0.267896 
35 0.00000 0.00000 0.00000 0.101200 0.0896716 0.227899 
36 0.00000 100.0000 0.00000 37.99968 74.15930 10.38834 
37 100.0000 100.0000 100.0000 96.76890 99.91154 116.9780 
38 0.00000 0.00000 70.00000 8.539498 2.634877 44.68718 
39 0.00000 0.00000 80.00000 11.59906 3.547970 60.81218 
40 0.00000 0.00000 30.00000 1.220785 0.430048 6.126115 
41 30.00000 30.00000 30.00000 5.890539 6.154557 7.035041 
42 40.00000 40.00000 40.00000 11.31471 11.82151 13.53040 
43 50.00000 50.00000 50.00000 19.23567 20.07271 22.98113 
44 60.00000 60.00000 60.00000 29.34914 30.59151 35.04914 
45 70.00000 70.00000 70.00000 42.39965 44.12161 50.80180 
46 80.00000 80.00000 80.00000 57.42011 59.66024 68.91162 
47 90.00000 90.00000 90.00000 75.89655 78.67408 91.33149 
END_DATA
