workflow_test_cal.ti1
CTI1 
COLOR_REP "RGB"
NUMBER_OF_FIELDS 4
BEGIN_DATA_FORMAT
SAMPLE_ID RGB_R RGB_G RGB_B
END_DATA_FORMAT 
NUMBER_OF_SETS 30
NUMBER_OF_SETS 30
BEGIN_DATA
1	23.974431	24.217722	28.001273
2	57.650257	59.582404	69.828150
3	41.555145	44.638323	80.458249
4	27.449925	32.733137	33.676392
5	50.601373	51.576284	92.318468
6	55.098877	66.860669	93.063452
7	45.737305	45.789975	29.122876
8	30.759850	30.420957	75.751808
9	46.013692	40.365336	49.931898
10	24.068347	21.764920	43.615219
11	50.258211	62.657674	40.715901
12	54.406728	59.387118	36.874305
13	19.907401	18.525158	55.498591
14	27.672511	38.057845	32.818899
15	35.050419	27.748842	31.060354
16	57.384180	66.485741	33.480886
17	49.915951	41.684952	74.092026
18	36.245651	43.878599	82.950576
19	73.890018	80.034414	109.893602
20	62.152058	67.203916	93.203407
21	49.387577	53.201492	74.087616
22	36.281711	39.279230	54.988991
23	22.174503	24.039746	34.505329
24	13.477414	14.547892	22.543367
25	0.000000	0.000000	0.000000
26	0.000000	0.000000	0.000000
27	0.000000	0.000000	0.000000
28	100.000000	100.000000	100.000000
29	100.000000	100.000000	100.000000
30	100.000000	100.000000	100.000000
END_DATA
