workflow_test_cal.ti3
CTI3   

DESCRIPTOR "Argyll Calibration Target chart information 3"
ORIGINATOR "Argyll dispread"
CREATED "Tue May 10 14:12:34 2016"
DEVICE_CLASS "DISPLAY"
COLOR_REP "RGB_XYZ"
TARGET_INSTRUMENT "X-Rite ColorMunki"
DISPLAY_TYPE_REFRESH "YES"
INSTRUMENT_TYPE_SPECTRAL "YES"
LUMINANCE_XYZ_CDM2 "351.100080 362.398897 419.714179"
NORMALIZED_TO_Y_100 "YES"

NUMBER_OF_FIELDS 7
BEGIN_DATA_FORMAT
SAMPLE_ID RGB_R RGB_G RGB_B XYZ_X XYZ_Y XYZ_Z 
END_DATA_FORMAT

NUMBER_OF_SETS 30
BEGIN_DATA
1 23.97443 24.21772 28.00127 3.825878 3.830281 5.616022 
2 57.65026 59.58240 69.82815 31.00877 30.85903 48.17724 
3 41.55515 44.63832 80.45825 22.80369 17.80363 63.59579 
4 27.44993 32.73314 33.67639 6.266778 6.968464 8.890063 
5 50.60137 51.57628 92.31847 32.55300 25.31652 87.42637 
6 55.09888 66.86067 93.06345 41.52153 39.53407 90.89145 
7 45.73730 45.78997 29.12288 13.70480 15.83715 7.700370 
8 30.75985 30.42096 75.75181 15.14067 9.179651 54.22490 
9 46.01369 40.36534 49.93190 14.85160 13.54361 21.69072 
10 24.06835 21.76492 43.61522 5.314930 3.776700 14.96986 
11 50.25821 62.65767 40.71590 23.32566 30.27327 16.47916 
12 54.40673 59.38712 36.87430 22.79476 27.69476 13.37681 
13 19.90740 18.52516 55.49859 6.615045 3.451397 26.15887 
14 27.67251 38.05785 32.81890 7.474292 9.337327 8.783865 
15 35.05042 27.74884 31.06035 6.559449 5.933808 7.324697 
16 57.38418 66.48574 33.48089 27.18788 35.20809 12.37035 
17 49.91595 41.68495 74.09203 22.49411 16.73772 52.81716 
18 36.24565 43.87860 82.95058 22.10237 16.91306 68.45544 
19 73.89002 80.03441 109.8936 62.05603 60.64011 110.4390 
20 62.15206 67.20392 93.20341 44.94543 41.58917 92.09915 
21 49.38758 53.20149 74.08762 26.32529 24.37043 53.88134 
22 36.28171 39.27923 54.98899 12.88783 11.92241 26.52034 
23 22.17450 24.03975 34.50533 4.193569 3.806294 8.891563 
24 13.47741 14.54789 22.54337 1.359289 1.196644 3.228187 
25 0.00000 0.00000 0.00000 0.101729 0.0889393 0.227835 
26 0.00000 0.00000 0.00000 0.101985 0.0896162 0.227628 
27 0.00000 0.00000 0.00000 0.102846 0.0899783 0.229080 
28 100.0000 100.0000 100.0000 96.88222 100.0000 115.8155 
29 100.0000 100.0000 100.0000 96.86272 99.97694 115.7948 
30 100.0000 100.0000 100.0000 96.87414 99.98758 115.8192 
END_DATA
