workflow_test_uncal.ti1
CTI1 
COLOR_REP "RGB"
NUMBER_OF_FIELDS 4
BEGIN_DATA_FORMAT
SAMPLE_ID RGB_R RGB_G RGB_B
END_DATA_FORMAT 
NUMBER_OF_SETS 30
NUMBER_OF_SETS 30
BEGIN_DATA
1	38.008136	25.970995	21.682890
2	87.066874	65.248550	53.989726
3	38.554700	47.833260	62.783823
4	32.754305	40.895864	25.590778
5	56.233886	52.525688	72.229494
6	45.808640	82.150202	71.572006
7	90.197953	51.053666	22.016195
8	22.326054	27.851970	59.675060
9	87.377483	36.393323	39.215909
10	32.283205	18.753174	34.410012
11	69.281093	83.146097	29.852864
12	96.270571	71.632351	27.454202
13	12.188092	14.744985	43.909432
14	24.060723	52.786626	24.365056
15	77.185626	21.637461	24.620032
16	97.888669	84.802326	24.233675
17	84.984038	32.721023	58.666181
18	15.224237	51.624059	64.437668
19	90.345482	89.880064	85.092109
20	75.684291	75.261517	72.199178
21	60.508692	59.348678	57.412941
22	43.684007	43.985797	42.605301
23	26.010576	26.868177	26.752100
24	14.837949	16.029508	17.520497
25	0.000000	0.000000	0.000000
26	0.000000	0.000000	0.000000
27	0.000000	0.000000	0.000000
28	100.000000	100.000000	100.000000
29	100.000000	100.000000	100.000000
30	100.000000	100.000000	100.000000
END_DATA
