workflow_test_uncal.ti3
CTI3   

DESCRIPTOR "Argyll Calibration Target chart information 3"
ORIGINATOR "Argyll dispread"
CREATED "Mon May  9 12:36:16 2016"
DEVICE_CLASS "DISPLAY"
COLOR_REP "RGB_XYZ"
TARGET_INSTRUMENT "X-Rite ColorMunki"
DISPLAY_TYPE_REFRESH "YES"
INSTRUMENT_TYPE_SPECTRAL "YES"
LUMINANCE_XYZ_CDM2 "346.115151 357.514612 419.107943"
NORMALIZED_TO_Y_100 "YES"

NUMBER_OF_FIELDS 7
BEGIN_DATA_FORMAT
SAMPLE_ID RGB_R RGB_G RGB_B XYZ_X XYZ_Y XYZ_Z 
END_DATA_FORMAT

NUMBER_OF_SETS 30
BEGIN_DATA
1 38.00814 25.97099 21.68289 6.155558 5.398715 3.558449 
2 87.06687 65.24855 53.98973 46.73967 43.36753 29.93455 
3 38.55470 47.83326 62.78382 17.63137 17.55953 36.88343 
4 32.75431 40.89586 25.59078 8.398015 10.93229 5.670728 
5 56.23389 52.52569 72.22949 27.73551 24.55760 51.13640 
6 45.80864 82.15020 71.57201 39.43100 52.91634 54.57997 
7 90.19795 51.05367 22.01619 38.80361 31.12676 6.783703 
8 22.32605 27.85197 59.67506 8.987099 6.206276 31.31655 
9 87.37748 36.39332 39.21591 33.90125 22.04171 14.09962 
10 32.28321 18.75317 34.41001 5.112969 3.413812 8.883916 
11 69.28109 83.14610 29.85286 42.52443 57.28093 13.68569 
12 96.27057 71.63235 27.45420 53.90030 52.81743 11.69348 
13 12.18809 14.74498 43.90943 3.561949 1.895227 15.05428 
14 24.06072 52.78663 24.36506 10.73570 17.77167 6.199896 
15 77.18563 21.63746 24.62003 22.80622 12.98554 5.393242 
16 97.88867 84.80233 24.23368 63.94580 69.88197 12.82329 
17 84.98404 32.72102 58.66618 34.90955 20.66058 32.11681 
18 15.22424 51.62406 64.43767 15.73461 18.42169 39.18167 
19 90.34548 89.88006 85.09211 73.70298 77.68620 80.89486 
20 75.68429 75.26152 72.19918 49.14364 51.66451 54.84696 
21 60.50869 59.34868 57.41294 28.56437 29.80112 31.71975 
22 43.68401 43.98580 42.60530 13.80595 14.61633 15.88411 
23 26.01058 26.86818 26.75210 4.329843 4.628086 5.262302 
24 14.83795 16.02951 17.52050 1.364594 1.423536 2.058934 
25 0.00000 0.00000 0.00000 0.107961 0.0945652 0.239847 
26 0.00000 0.00000 0.00000 0.106879 0.0932434 0.237702 
27 0.00000 0.00000 0.00000 0.108586 0.0947846 0.241010 
28 100.0000 100.0000 100.0000 96.81147 100.0000 117.2282 
29 100.0000 100.0000 100.0000 96.80959 99.99333 117.2391 
30 100.0000 100.0000 100.0000 96.83216 100.0187 117.2703 
END_DATA
