colormonki/silent_tide_real.sp
SPECT  

DESCRIPTOR "Argyll Spectral power/reflectance information"
ORIGINATOR "Argyll CMS"
CREATED "Thu Feb 11 14:51:58 2016"
SPECTRAL_BANDS "36"
SPECTRAL_START_NM "380.000000"
SPECTRAL_END_NM "730.000000"
SPECTRAL_NORM "100.000000"

NUMBER_OF_FIELDS 36
BEGIN_DATA_FORMAT
SPEC_380 SPEC_390 SPEC_400 SPEC_410 SPEC_420 SPEC_430 SPEC_440 SPEC_450 SPEC_460 SPEC_470 SPEC_480 SPEC_490 SPEC_500 SPEC_510 SPEC_520 SPEC_530 SPEC_540 SPEC_550 SPEC_560 SPEC_570 SPEC_580 SPEC_590 SPEC_600 SPEC_610 SPEC_620 SPEC_630 SPEC_640 SPEC_650 SPEC_660 SPEC_670 SPEC_680 SPEC_690 SPEC_700 SPEC_710 SPEC_720 SPEC_730 
END_DATA_FORMAT

NUMBER_OF_SETS 1
BEGIN_DATA
30.11279 30.11893 30.12582 30.13349 30.14189 30.52647 30.73917 30.90792 30.87573 30.60929 30.32466 30.08304 29.80265 29.51614 29.11216 28.41029 27.42227 25.99729 24.20647 22.78360 21.94562 21.50072 20.96425 20.46161 20.45253 21.13563 22.23767 23.24044 23.77358 23.41618 22.42825 21.60130 21.56952 22.07642 22.76817 23.68725 
END_DATA
