colormonki/teal_mosaic_real.sp
SPECT  

DESCRIPTOR "Argyll Spectral power/reflectance information"
ORIGINATOR "Argyll CMS"
CREATED "Thu Feb 11 14:52:44 2016"
SPECTRAL_BANDS "36"
SPECTRAL_START_NM "380.000000"
SPECTRAL_END_NM "730.000000"
SPECTRAL_NORM "100.000000"

NUMBER_OF_FIELDS 36
BEGIN_DATA_FORMAT
SPEC_380 SPEC_390 SPEC_400 SPEC_410 SPEC_420 SPEC_430 SPEC_440 SPEC_450 SPEC_460 SPEC_470 SPEC_480 SPEC_490 SPEC_500 SPEC_510 SPEC_520 SPEC_530 SPEC_540 SPEC_550 SPEC_560 SPEC_570 SPEC_580 SPEC_590 SPEC_600 SPEC_610 SPEC_620 SPEC_630 SPEC_640 SPEC_650 SPEC_660 SPEC_670 SPEC_680 SPEC_690 SPEC_700 SPEC_710 SPEC_720 SPEC_730 
END_DATA_FORMAT

NUMBER_OF_SETS 1
BEGIN_DATA
13.09992 13.10216 13.10469 13.10748 13.11122 13.84787 14.53054 15.30212 16.41629 17.29545 16.98217 16.65345 16.25219 14.43501 12.54470 11.93950 11.33541 9.590661 8.249144 8.075847 8.130036 7.516533 6.521834 5.791483 5.474027 5.390900 5.392820 5.461856 5.674216 5.968885 6.252045 6.482228 6.695581 6.809730 6.871658 7.134884 
END_DATA
