colormonki/mac/mac_teal_mosaic_matching.sp
SPECT  

DESCRIPTOR "Argyll Spectral power/reflectance information"
ORIGINATOR "Argyll CMS"
CREATED "Thu Feb 18 14:26:39 2016"
SPECTRAL_BANDS "36"
SPECTRAL_START_NM "380.000000"
SPECTRAL_END_NM "730.000000"
SPECTRAL_NORM "100.000000"

NUMBER_OF_FIELDS 36
BEGIN_DATA_FORMAT
SPEC_380 SPEC_390 SPEC_400 SPEC_410 SPEC_420 SPEC_430 SPEC_440 SPEC_450 SPEC_460 SPEC_470 SPEC_480 SPEC_490 SPEC_500 SPEC_510 SPEC_520 SPEC_530 SPEC_540 SPEC_550 SPEC_560 SPEC_570 SPEC_580 SPEC_590 SPEC_600 SPEC_610 SPEC_620 SPEC_630 SPEC_640 SPEC_650 SPEC_660 SPEC_670 SPEC_680 SPEC_690 SPEC_700 SPEC_710 SPEC_720 SPEC_730 
END_DATA_FORMAT

NUMBER_OF_SETS 1
BEGIN_DATA
10.11683 9.564247 8.960473 17.44654 17.06025 17.47838 17.66789 17.84901 17.95422 17.70089 17.11191 16.56289 16.28321 15.99188 15.76332 15.65408 15.57138 15.60807 15.56976 15.51886 14.62776 10.74298 6.774184 5.173340 4.666273 4.598525 4.601508 4.674268 4.773090 4.861929 4.869836 4.890439 4.967430 5.125097 5.193850 5.407224 
END_DATA
