colormonki/mac/mac_silent_tide_screen.sp
SPECT  

DESCRIPTOR "Argyll Spectral power/reflectance information"
ORIGINATOR "Argyll CMS"
CREATED "Thu Feb 11 15:04:01 2016"
SPECTRAL_BANDS "36"
SPECTRAL_START_NM "380.000000"
SPECTRAL_END_NM "730.000000"
SPECTRAL_NORM "100.000000"

NUMBER_OF_FIELDS 36
BEGIN_DATA_FORMAT
SPEC_380 SPEC_390 SPEC_400 SPEC_410 SPEC_420 SPEC_430 SPEC_440 SPEC_450 SPEC_460 SPEC_470 SPEC_480 SPEC_490 SPEC_500 SPEC_510 SPEC_520 SPEC_530 SPEC_540 SPEC_550 SPEC_560 SPEC_570 SPEC_580 SPEC_590 SPEC_600 SPEC_610 SPEC_620 SPEC_630 SPEC_640 SPEC_650 SPEC_660 SPEC_670 SPEC_680 SPEC_690 SPEC_700 SPEC_710 SPEC_720 SPEC_730 
END_DATA_FORMAT

NUMBER_OF_SETS 1
BEGIN_DATA
18.55538 16.98707 15.24557 24.10116 26.81452 27.34720 27.57396 27.65448 27.69256 27.38242 26.67408 26.05434 25.67074 25.34091 25.24184 25.02397 24.98273 25.09354 25.00709 24.90959 24.45450 21.60797 18.83466 17.68335 17.31605 17.34490 17.27661 17.29236 17.36175 17.49518 17.45173 17.47079 17.56987 17.63165 17.72257 17.94238 
END_DATA
