colormonki/mac/mac_silent_tide_matching.sp
SPECT  

DESCRIPTOR "Argyll Spectral power/reflectance information"
ORIGINATOR "Argyll CMS"
CREATED "Thu Feb 18 14:23:59 2016"
SPECTRAL_BANDS "36"
SPECTRAL_START_NM "380.000000"
SPECTRAL_END_NM "730.000000"
SPECTRAL_NORM "100.000000"

NUMBER_OF_FIELDS 36
BEGIN_DATA_FORMAT
SPEC_380 SPEC_390 SPEC_400 SPEC_410 SPEC_420 SPEC_430 SPEC_440 SPEC_450 SPEC_460 SPEC_470 SPEC_480 SPEC_490 SPEC_500 SPEC_510 SPEC_520 SPEC_530 SPEC_540 SPEC_550 SPEC_560 SPEC_570 SPEC_580 SPEC_590 SPEC_600 SPEC_610 SPEC_620 SPEC_630 SPEC_640 SPEC_650 SPEC_660 SPEC_670 SPEC_680 SPEC_690 SPEC_700 SPEC_710 SPEC_720 SPEC_730 
END_DATA_FORMAT

NUMBER_OF_SETS 1
BEGIN_DATA
15.66878 14.47928 13.17775 31.82480 32.14804 32.34756 31.57807 31.40516 31.84136 31.95798 32.77913 33.55964 33.57921 34.22941 35.64392 34.05560 34.64011 36.28014 35.14083 34.05216 35.66134 34.53099 31.99644 31.08848 32.09029 31.98042 31.61694 31.16818 31.65253 31.45802 31.72172 31.60009 31.52775 31.27185 30.94931 31.20051 
END_DATA
