colormonki/win/win_teal_mosaic_matching.sp
SPECT  

DESCRIPTOR "Argyll Spectral power/reflectance information"
ORIGINATOR "Argyll CMS"
CREATED "Thu Feb 18 14:37:17 2016"
SPECTRAL_BANDS "36"
SPECTRAL_START_NM "380.000000"
SPECTRAL_END_NM "730.000000"
SPECTRAL_NORM "100.000000"

NUMBER_OF_FIELDS 36
BEGIN_DATA_FORMAT
SPEC_380 SPEC_390 SPEC_400 SPEC_410 SPEC_420 SPEC_430 SPEC_440 SPEC_450 SPEC_460 SPEC_470 SPEC_480 SPEC_490 SPEC_500 SPEC_510 SPEC_520 SPEC_530 SPEC_540 SPEC_550 SPEC_560 SPEC_570 SPEC_580 SPEC_590 SPEC_600 SPEC_610 SPEC_620 SPEC_630 SPEC_640 SPEC_650 SPEC_660 SPEC_670 SPEC_680 SPEC_690 SPEC_700 SPEC_710 SPEC_720 SPEC_730 
END_DATA_FORMAT

NUMBER_OF_SETS 1
BEGIN_DATA
5.649238 5.215334 4.739129 10.46392 12.20283 12.69117 12.79505 12.86538 13.01598 13.04570 12.84419 12.60571 12.36284 12.21228 12.01672 11.97663 11.94372 11.98484 12.01774 11.87059 10.35983 6.070665 2.807168 1.529526 1.168879 1.093764 1.095700 1.152086 1.233687 1.362754 1.443267 1.502516 1.642181 1.700743 2.088366 1.743906 
END_DATA
