colormonki/win/win_silent_tide_screen.sp
SPECT  

DESCRIPTOR "Argyll Spectral power/reflectance information"
ORIGINATOR "Argyll CMS"
CREATED "Thu Feb 11 15:08:05 2016"
SPECTRAL_BANDS "36"
SPECTRAL_START_NM "380.000000"
SPECTRAL_END_NM "730.000000"
SPECTRAL_NORM "100.000000"

NUMBER_OF_FIELDS 36
BEGIN_DATA_FORMAT
SPEC_380 SPEC_390 SPEC_400 SPEC_410 SPEC_420 SPEC_430 SPEC_440 SPEC_450 SPEC_460 SPEC_470 SPEC_480 SPEC_490 SPEC_500 SPEC_510 SPEC_520 SPEC_530 SPEC_540 SPEC_550 SPEC_560 SPEC_570 SPEC_580 SPEC_590 SPEC_600 SPEC_610 SPEC_620 SPEC_630 SPEC_640 SPEC_650 SPEC_660 SPEC_670 SPEC_680 SPEC_690 SPEC_700 SPEC_710 SPEC_720 SPEC_730 
END_DATA_FORMAT

NUMBER_OF_SETS 1
BEGIN_DATA
22.81293 21.22411 19.45657 28.84465 25.06938 25.42208 25.70023 26.57630 26.77736 26.36968 26.32250 25.62455 25.26997 25.10269 24.74704 24.81719 24.71204 24.62377 24.83877 24.71550 22.40212 17.33346 13.82082 12.45612 11.89432 11.54069 11.68701 11.90081 12.05339 11.91308 11.89123 11.97773 12.24754 12.38236 12.64382 13.32919 
END_DATA
