colormonki/win/win_silent_tide_matching.sp
SPECT  

DESCRIPTOR "Argyll Spectral power/reflectance information"
ORIGINATOR "Argyll CMS"
CREATED "Thu Feb 18 14:36:12 2016"
SPECTRAL_BANDS "36"
SPECTRAL_START_NM "380.000000"
SPECTRAL_END_NM "730.000000"
SPECTRAL_NORM "100.000000"

NUMBER_OF_FIELDS 36
BEGIN_DATA_FORMAT
SPEC_380 SPEC_390 SPEC_400 SPEC_410 SPEC_420 SPEC_430 SPEC_440 SPEC_450 SPEC_460 SPEC_470 SPEC_480 SPEC_490 SPEC_500 SPEC_510 SPEC_520 SPEC_530 SPEC_540 SPEC_550 SPEC_560 SPEC_570 SPEC_580 SPEC_590 SPEC_600 SPEC_610 SPEC_620 SPEC_630 SPEC_640 SPEC_650 SPEC_660 SPEC_670 SPEC_680 SPEC_690 SPEC_700 SPEC_710 SPEC_720 SPEC_730 
END_DATA_FORMAT

NUMBER_OF_SETS 1
BEGIN_DATA
21.20943 19.72802 18.10117 37.74062 36.16269 36.03948 36.05368 36.67199 36.99011 37.43526 38.70589 39.87813 40.71384 41.49706 42.00288 42.32262 42.52611 42.67828 43.04634 43.16577 41.94452 38.61984 36.04257 35.06182 34.65873 34.34981 34.60273 34.76727 35.07975 35.05814 34.98447 35.29583 35.33118 35.58452 35.62426 36.09790 
END_DATA
