colormonki/ramps/cube.ti3
CTI3   

DESCRIPTOR "Argyll Calibration Target chart information 3"
ORIGINATOR "Argyll dispread"
CREATED "Thu Apr 14 15:07:29 2016"
DEVICE_CLASS "DISPLAY"
MULTI_DIM_STEPS "5"
COLOR_REP "RGB_XYZ"
TARGET_INSTRUMENT "X-Rite ColorMunki"
DISPLAY_TYPE_REFRESH "YES"
INSTRUMENT_TYPE_SPECTRAL "YES"
LUMINANCE_XYZ_CDM2 "284.841171 296.830991 338.481061"
NORMALIZED_TO_Y_100 "YES"

NUMBER_OF_FIELDS 7
BEGIN_DATA_FORMAT
SAMPLE_ID RGB_R RGB_G RGB_B XYZ_X XYZ_Y XYZ_Z 
END_DATA_FORMAT

NUMBER_OF_SETS 125
BEGIN_DATA
1 0.00000 0.00000 0.00000 0.111948 0.101765 0.236075 
2 25.00000 0.00000 0.00000 1.928607 1.023753 0.329899 
3 50.00000 0.00000 0.00000 8.020980 4.106717 0.620083 
4 75.00000 0.00000 0.00000 19.64105 9.991948 1.198938 
5 100.0000 0.00000 0.00000 38.10437 19.33691 2.157762 
6 100.0000 75.00000 100.0000 77.27377 64.11642 108.0473 
7 0.00000 25.00000 0.00000 1.947388 3.697026 0.710770 
8 50.00000 25.00000 0.00000 9.960684 7.804560 1.106541 
9 75.00000 25.00000 0.00000 21.58418 13.70265 1.674998 
10 100.0000 25.00000 0.00000 40.04421 23.10099 2.637056 
11 100.0000 50.00000 25.00000 47.29838 35.72858 9.158447 
12 25.00000 50.00000 0.00000 9.946964 16.69253 2.368231 
13 50.00000 50.00000 0.00000 16.11935 19.85046 2.669462 
14 75.00000 50.00000 0.00000 27.77594 25.79407 3.243176 
15 100.0000 50.00000 0.00000 46.27947 35.31408 4.234652 
16 100.0000 75.00000 25.00000 58.85080 58.36656 12.15148 
17 0.00000 50.00000 0.00000 8.023772 15.61300 2.262481 
18 50.00000 75.00000 0.00000 27.64442 42.41905 5.618406 
19 75.00000 75.00000 0.00000 39.32073 48.39029 6.201754 
20 100.0000 75.00000 0.00000 57.80265 57.90774 7.185836 
21 25.00000 75.00000 0.00000 21.44894 39.24425 5.319322 
22 25.00000 100.0000 0.00000 39.65513 74.94896 10.16082 
23 50.00000 100.0000 0.00000 45.89011 78.11118 10.45376 
24 75.00000 100.0000 0.00000 57.55900 84.01690 11.04911 
25 100.0000 100.0000 0.00000 75.86525 93.32687 11.99388 
26 0.00000 0.00000 25.00000 0.997250 0.374422 4.874730 
27 25.00000 0.00000 25.00000 2.848868 1.308816 5.021492 
28 50.00000 0.00000 25.00000 8.986616 4.416420 5.347728 
29 75.00000 0.00000 25.00000 20.58726 10.28690 5.928543 
30 100.0000 0.00000 25.00000 38.99669 19.60728 6.988457 
31 100.0000 0.00000 75.00000 47.93642 22.31920 53.87670 
32 75.00000 50.00000 75.00000 37.81097 29.02936 54.91538 
33 50.00000 25.00000 25.00000 10.95435 8.162435 5.900511 
34 75.00000 25.00000 25.00000 22.58968 14.06914 6.510649 
35 100.0000 25.00000 25.00000 40.97127 23.41788 7.548088 
36 100.0000 75.00000 50.00000 61.94049 59.29581 28.65054 
37 100.0000 75.00000 75.00000 67.82137 61.13432 59.30685 
38 50.00000 50.00000 25.00000 17.15902 20.28138 7.498755 
39 75.00000 50.00000 25.00000 28.78737 26.19916 8.077617 
40 25.00000 25.00000 0.00000 3.814232 4.677825 0.804333 
41 25.00000 50.00000 25.00000 10.93742 17.08682 7.168740 
42 25.00000 75.00000 25.00000 22.45025 39.65198 10.14901 
43 50.00000 75.00000 25.00000 28.69008 42.84603 10.48704 
44 75.00000 75.00000 25.00000 40.36171 48.81089 11.09259 
45 75.00000 75.00000 50.00000 43.51272 49.81379 27.42536 
46 0.00000 100.0000 0.00000 37.69758 73.86804 10.04219 
47 25.00000 100.0000 25.00000 40.60729 75.23154 15.06020 
48 50.00000 100.0000 25.00000 46.88647 78.41031 15.38921 
49 75.00000 100.0000 25.00000 58.53973 84.31211 15.98399 
50 100.0000 100.0000 25.00000 76.80225 93.60019 17.01136 
51 100.0000 100.0000 50.00000 79.97251 94.56516 33.65969 
52 25.00000 0.00000 50.00000 5.912196 2.240460 21.07268 
53 50.00000 0.00000 50.00000 12.07150 5.357122 21.44340 
54 75.00000 0.00000 50.00000 23.69511 11.24003 22.09049 
55 100.0000 0.00000 50.00000 42.08941 20.53845 23.29980 
56 100.0000 0.00000 100.0000 57.20319 25.04619 102.5919 
57 100.0000 50.00000 100.0000 65.56689 41.35406 104.8347 
58 50.00000 25.00000 50.00000 14.07735 9.133934 22.11720 
59 75.00000 25.00000 50.00000 25.70679 15.03142 22.75015 
60 100.0000 25.00000 50.00000 44.09792 24.37801 23.97349 
61 100.0000 25.00000 100.0000 54.99307 26.89881 95.71312 
62 25.00000 50.00000 50.00000 13.43274 17.28340 22.32109 
63 50.00000 50.00000 50.00000 20.48673 21.47184 24.00590 
64 75.00000 50.00000 50.00000 32.24408 27.46093 24.66510 
65 100.0000 50.00000 50.00000 50.84184 37.01574 25.91433 
66 100.0000 50.00000 75.00000 56.74488 38.83197 56.82299 
67 25.00000 75.00000 50.00000 25.81497 41.00686 26.67052 
68 50.00000 75.00000 50.00000 32.13219 44.24429 27.06384 
69 0.00000 75.00000 0.00000 19.65744 38.43755 5.235925 
70 0.00000 75.00000 25.00000 20.66740 38.88955 10.08799 
71 0.00000 100.0000 25.00000 38.97567 74.82529 15.03535 
72 0.00000 100.0000 50.00000 42.12732 75.79785 31.54340 
73 50.00000 100.0000 50.00000 50.48357 80.05068 32.18894 
74 75.00000 100.0000 50.00000 62.24325 86.00938 32.83145 
75 0.00000 0.00000 50.00000 4.068273 1.305224 21.03151 
76 0.00000 0.00000 75.00000 9.915418 3.070042 51.76327 
77 25.00000 0.00000 75.00000 11.83240 4.032986 52.07708 
78 50.00000 0.00000 75.00000 18.06319 7.182049 52.46975 
79 75.00000 0.00000 75.00000 29.79119 13.11334 53.15257 
80 25.00000 25.00000 25.00000 4.815692 5.064744 5.645163 
81 25.00000 25.00000 50.00000 7.937990 6.029168 21.96765 
82 25.00000 25.00000 75.00000 13.81981 7.822302 52.78935 
83 50.00000 25.00000 75.00000 20.10606 11.01595 53.19290 
84 75.00000 25.00000 75.00000 31.85262 16.97515 53.87127 
85 100.0000 25.00000 75.00000 50.36850 26.37777 55.15118 
86 0.00000 25.00000 25.00000 2.896147 4.056565 5.485513 
87 0.00000 50.00000 25.00000 9.073934 16.16123 7.085036 
88 50.00000 50.00000 75.00000 26.41519 23.31811 54.88779 
89 50.00000 50.00000 100.0000 35.92229 26.26058 104.1547 
90 50.00000 75.00000 100.0000 47.59936 49.09481 107.1922 
91 25.00000 50.00000 75.00000 20.10231 20.08465 54.50570 
92 25.00000 75.00000 75.00000 31.74282 42.86686 57.58822 
93 50.00000 75.00000 75.00000 38.07295 46.10384 57.98339 
94 75.00000 75.00000 75.00000 49.84914 52.10996 58.64424 
95 75.00000 75.00000 100.0000 59.40753 55.12027 107.8568 
96 25.00000 100.0000 50.00000 44.12455 76.83705 31.81527 
97 25.00000 100.0000 75.00000 50.05316 78.65490 62.79019 
98 50.00000 100.0000 75.00000 56.43538 81.89939 63.19077 
99 75.00000 100.0000 75.00000 68.21437 87.85820 63.86463 
100 100.0000 100.0000 75.00000 86.60027 97.18298 65.04831 
101 0.00000 0.00000 100.0000 19.33419 5.839587 101.3747 
102 25.00000 0.00000 100.0000 21.26396 6.814592 101.5868 
103 50.00000 0.00000 100.0000 27.53730 9.987083 101.9201 
104 75.00000 0.00000 100.0000 39.28737 15.93326 102.5757 
105 75.00000 50.00000 100.0000 47.72313 32.27211 104.8438 
106 0.00000 25.00000 100.0000 21.29572 9.635956 101.9991 
107 25.00000 25.00000 100.0000 23.26639 10.66136 102.2276 
108 50.00000 25.00000 100.0000 29.59219 13.87559 102.5742 
109 75.00000 25.00000 100.0000 41.35875 19.84432 103.2113 
110 0.00000 50.00000 75.00000 18.09206 18.97777 54.22882 
111 0.00000 50.00000 100.0000 27.55925 21.90870 103.6253 
112 25.00000 50.00000 100.0000 29.58648 23.02211 103.8830 
113 0.00000 25.00000 50.00000 6.004867 5.020127 21.75772 
114 0.00000 25.00000 75.00000 11.87259 6.802246 52.57852 
115 0.00000 75.00000 75.00000 29.73177 41.75621 57.33737 
116 0.00000 75.00000 100.0000 39.19936 44.69829 106.6957 
117 25.00000 75.00000 100.0000 41.23922 45.83778 106.9300 
118 0.00000 50.00000 50.00000 12.21338 17.16402 23.41903 
119 0.00000 75.00000 50.00000 23.81642 39.90343 26.45730 
120 0.00000 100.0000 75.00000 48.03585 77.59694 62.51887 
121 0.00000 100.0000 100.0000 57.42940 80.43390 111.7117 
122 25.00000 100.0000 100.0000 59.45576 81.48847 111.9505 
123 50.00000 100.0000 100.0000 65.85634 84.72462 112.2993 
124 75.00000 100.0000 100.0000 77.61599 90.67217 112.9000 
125 100.0000 100.0000 100.0000 95.96073 100.0000 114.0316 
END_DATA
