colormonki/ramps/ramps_plus.ti3
CTI3   

DESCRIPTOR "Argyll Calibration Target chart information 3"
ORIGINATOR "Argyll dispread"
CREATED "Thu Apr  7 15:08:00 2016"
DEVICE_CLASS "DISPLAY"
SINGLE_DIM_STEPS "11"
COMP_GREY_STEPS "11"
COLOR_REP "RGB_XYZ"
TARGET_INSTRUMENT "X-Rite ColorMunki"
DISPLAY_TYPE_REFRESH "YES"
INSTRUMENT_TYPE_SPECTRAL "YES"
LUMINANCE_XYZ_CDM2 "323.465229 335.844915 390.047025"
NORMALIZED_TO_Y_100 "YES"

NUMBER_OF_FIELDS 7
BEGIN_DATA_FORMAT
SAMPLE_ID RGB_R RGB_G RGB_B XYZ_X XYZ_Y XYZ_Z 
END_DATA_FORMAT

NUMBER_OF_SETS 47
BEGIN_DATA
1 100.0000 100.0000 100.0000 96.31387 100.0000 116.1390 
2 0.00000 20.00000 0.00000 1.263920 2.352761 0.551797 
3 20.00000 20.00000 20.00000 3.019768 3.163231 3.595986 
4 0.00000 0.00000 0.00000 0.118253 0.107480 0.248704 
5 0.00000 0.00000 90.00000 15.38751 4.659606 80.57895 
6 0.00000 0.00000 100.0000 19.71941 5.912342 103.3355 
7 0.00000 0.00000 0.00000 0.117759 0.106826 0.248756 
8 0.00000 0.00000 10.00000 0.261647 0.149930 1.007880 
9 10.00000 10.00000 10.00000 0.861056 0.894464 1.111792 
10 20.00000 0.00000 0.00000 1.254393 0.683862 0.303091 
11 30.00000 0.00000 0.00000 2.825470 1.479746 0.382373 
12 40.00000 0.00000 0.00000 4.977988 2.572857 0.489559 
13 10.00000 0.00000 0.00000 0.408691 0.253981 0.261922 
14 50.00000 0.00000 0.00000 8.070838 4.140930 0.641506 
15 60.00000 0.00000 0.00000 11.98890 6.127828 0.838328 
16 70.00000 0.00000 0.00000 16.99735 8.667757 1.087430 
17 80.00000 0.00000 0.00000 22.74181 11.58100 1.369908 
18 100.0000 0.00000 0.00000 38.47297 19.55656 2.208634 
19 90.00000 0.00000 0.00000 30.03403 15.28271 1.758025 
20 100.0000 100.0000 100.0000 96.16569 99.85731 115.7649 
21 0.00000 30.00000 0.00000 2.830210 5.429624 0.953045 
22 0.00000 40.00000 0.00000 4.978142 9.651145 1.508760 
23 0.00000 50.00000 0.00000 8.038757 15.66189 2.301168 
24 0.00000 60.00000 0.00000 11.90511 23.26206 3.299769 
25 0.00000 70.00000 0.00000 16.79445 32.86346 4.582928 
26 0.00000 80.00000 0.00000 22.52807 44.12346 6.093745 
27 0.00000 90.00000 0.00000 29.66295 58.17458 7.975258 
28 0.00000 0.00000 50.00000 4.130463 1.316768 21.35049 
29 0.00000 0.00000 20.00000 0.670426 0.275463 3.149679 
30 0.00000 0.00000 40.00000 2.555883 0.843248 13.07208 
31 0.00000 0.00000 60.00000 6.125603 1.914659 31.85141 
32 0.00000 0.00000 0.00000 0.117169 0.106495 0.246739 
33 100.0000 100.0000 100.0000 96.07659 99.75972 115.6305 
34 0.00000 10.00000 0.00000 0.416200 0.692486 0.325614 
35 0.00000 0.00000 0.00000 0.117253 0.106359 0.247062 
36 0.00000 100.0000 0.00000 37.77054 74.13113 10.21182 
37 100.0000 100.0000 100.0000 96.05514 99.73276 115.5981 
38 0.00000 0.00000 70.00000 8.662382 2.678438 45.18312 
39 0.00000 0.00000 80.00000 11.62918 3.562811 60.79405 
40 0.00000 0.00000 30.00000 1.461017 0.512377 7.324053 
41 30.00000 30.00000 30.00000 7.055315 7.391552 8.374244 
42 40.00000 40.00000 40.00000 12.57090 13.16478 14.92848 
43 50.00000 50.00000 50.00000 20.45563 21.37725 24.34312 
44 60.00000 60.00000 60.00000 30.33495 31.65723 36.17957 
45 70.00000 70.00000 70.00000 42.86284 44.64725 51.17761 
46 80.00000 80.00000 80.00000 57.36142 59.74246 68.65691 
47 90.00000 90.00000 90.00000 75.47664 78.55873 90.37417 
END_DATA
